build/svg/cmd/32/assignlayout.svg

<?xml version="1.0" encoding="UTF-8" standalone="no"?>
<svg
   xmlns:dc="http://purl.org/dc/elements/1.1/"
   xmlns:cc="http://creativecommons.org/ns#"
   xmlns:rdf="http://www.w3.org/1999/02/22-rdf-syntax-ns#"
   xmlns:svg="http://www.w3.org/2000/svg"
   xmlns="http://www.w3.org/2000/svg"
   xmlns:sodipodi="http://sodipodi.sourceforge.net/DTD/sodipodi-0.dtd"
   xmlns:inkscape="http://www.inkscape.org/namespaces/inkscape"
   viewBox="0 0 32 32"
   version="1.1"
   id="svg4"
   sodipodi:docname="assignlayout.svg"
   inkscape:version="0.92.5 (2060ec1f9f, 2020-04-08)"
   inkscape:export-filename="/home/jupiter007/Libreoffice yaru theme fullcolor/build/cmd/32/assignlayout.png"
   inkscape:export-xdpi="95"
   inkscape:export-ydpi="95">
  <metadata
     id="metadata10">
    <rdf:RDF>
      <cc:Work
         rdf:about="">
        <dc:format>image/svg+xml</dc:format>
        <dc:type
           rdf:resource="http://purl.org/dc/dcmitype/StillImage" />
      </cc:Work>
    </rdf:RDF>
  </metadata>
  <defs
     id="defs8" />
  <sodipodi:namedview
     pagecolor="#ffffff"
     bordercolor="#666666"
     borderopacity="1"
     objecttolerance="10"
     gridtolerance="10"
     guidetolerance="10"
     inkscape:pageopacity="0"
     inkscape:pageshadow="2"
     inkscape:window-width="1920"
     inkscape:window-height="1011"
     id="namedview6"
     showgrid="true"
     inkscape:zoom="20.85965"
     inkscape:cx="8.3753492"
     inkscape:cy="13.070391"
     inkscape:window-x="0"
     inkscape:window-y="32"
     inkscape:window-maximized="1"
     inkscape:current-layer="svg4">
    <inkscape:grid
       type="xygrid"
       id="grid826" />
  </sodipodi:namedview>
  <path
     sodipodi:nodetypes="cccscsccccccccscscccccc"
     inkscape:connector-curvature="0"
     id="path4237-1"
     d="m 25.006543,6.9997089 c 1.2582,0.0145 2.178891,-0.0306 2.931641,0.384766 0.37637,0.20766 0.673231,0.559386 0.837891,0.998046 0.16467,0.43867 0.224609,0.959588 0.224609,1.617188 v 1.4882821 10.512301 c 0,0.657609 -0.0599,1.178578 -0.224609,1.617188 -0.16468,0.438611 -0.461531,0.788524 -0.837891,0.996092 -0.75272,0.415131 -1.673541,0.37165 -2.931641,0.386719 h -0.002 -18.0064924 -0.0039 C 5.7359596,24.985791 4.815259,25.030891 4.062509,24.615525 3.686139,24.407865 3.389288,24.056139 3.224618,23.61748 3.060079,23.178809 3,22.657901 3,22.000292 V 11.466507 9.9997089 c 0,-0.6576 0.0599,-1.178577 0.224609,-1.617188 0.16468,-0.4386 0.461531,-0.788533 0.837891,-0.996093 0.75277,-0.41513 1.6736006,-0.371639 2.9316916,-0.386719 h 0.002 18.0064924 z"
     style="font-style:normal;font-variant:normal;font-weight:normal;font-stretch:normal;font-size:15px;line-height:125%;font-family:Ubuntu;-inkscape-font-specification:Ubuntu;text-align:center;letter-spacing:0px;word-spacing:0px;writing-mode:lr-tb;text-anchor:middle;display:inline;opacity:0.6;fill:#000000;fill-opacity:1;stroke:none;stroke-width:0.99980211" />
  <path
     inkscape:connector-curvature="0"
     id="path1993"
     d="m 20.017315,8.0268939 c 1.556581,0.0108 5.10999,-0.01175 6.659941,0.03877 0.461229,0.04267 1.016188,0.206419 1.15534,0.709967 0.218994,0.635346 0.108414,1.3337871 0.145796,1.9819241 0.0078,2.297085 0.02297,9.596428 -0.02152,11.88578 -0.0391,0.46193 -0.202551,1.012666 -0.698756,1.163666 -0.632456,0.225082 -1.284144,0.12274 -1.935974,0.154299 -1.424235,0.0068 -10.851197,0.01102 -12.277054,0.01131 -1.70453,3.49e-4 -5.4083874,-0.005 -7.1071904,-0.01851 C 5.425987,23.94209 4.754199,23.97403 4.353153,23.548909 3.932056,23.009126 4.06608,22.280888 4.030408,21.645121 4.018538,19.200799 4.002718,11.734027 4.052308,9.2883269 4.101588,8.8862859 4.2223,8.4253739 4.627447,8.2438509 c 0.668169,-0.294097 1.4262056,-0.168019 2.1259216,-0.205572 1.754407,-0.0118 11.5095074,-0.01248 13.2639464,-0.01139 z"
     style="opacity:1;vector-effect:none;fill:#ffffff;fill-opacity:1;stroke:none;stroke-width:1;stroke-linecap:round;stroke-linejoin:bevel;stroke-miterlimit:4;stroke-dasharray:none;stroke-dashoffset:0;stroke-opacity:1"
     sodipodi:nodetypes="cccccccscccccccc" />
  <path
     inkscape:connector-curvature="0"
     id="path829"
     d="M 9.0003426,27 30.000342,15.999999 V 27 Z"
     style="opacity:0.6;fill:#000000;fill-opacity:1;stroke:#000000;stroke-width:2;stroke-linecap:butt;stroke-linejoin:round;stroke-miterlimit:4;stroke-dasharray:none;stroke-opacity:1"
     sodipodi:nodetypes="cccc" />
  <path
     style="fill:#ffffff;fill-opacity:1;stroke:none;stroke-width:1px;stroke-linecap:butt;stroke-linejoin:miter;stroke-opacity:1"
     d="M 9.0003426,27 30.000342,15.999999 V 27 Z"
     id="path827"
     inkscape:connector-curvature="0"
     sodipodi:nodetypes="cccc" />
</svg>

<svg xmlns="http://www.w3.org/2000/svg" viewBox="0 0 32 32"><path d="M25.007 7c1.258.014 2.178-.03 2.931.384.377.208.673.56.838.999.165.438.225.96.225 1.617v12c0 .658-.06 1.179-.225 1.617a1.875 1.875 0 01-.838.997c-.753.415-1.673.371-2.931.386H6.994c-1.258-.014-2.179.03-2.931-.384a1.88 1.88 0 01-.838-.999C3.06 23.18 3 22.657 3 22V10c0-.658.06-1.179.225-1.617.164-.44.461-.789.838-.997.752-.415 1.673-.371 2.931-.386h18.009z" style="line-height:125%;-inkscape-font-specification:Ubuntu;text-align:center" font-weight="400" font-size="15" font-family="Ubuntu" letter-spacing="0" word-spacing="0" text-anchor="middle" opacity=".6"/><path d="M20.017 8.027c1.557.01 5.11-.012 6.66.039.461.042 1.016.206 1.156.71.219.635.108 1.333.145 1.982.008 2.297.023 9.596-.021 11.885-.04.462-.203 1.013-.699 1.164-.632.225-1.284.123-1.936.154-1.424.007-10.851.011-12.277.012-1.704 0-5.408-.005-7.107-.019-.512-.012-1.184.02-1.585-.405-.42-.54-.287-1.268-.323-1.904-.011-2.444-.027-9.911.022-12.357.05-.402.17-.863.575-1.044.669-.294 1.427-.168 2.126-.206 1.755-.012 11.51-.012 13.264-.011z" fill="#fff"/><path d="M9 27l21-11v11z" opacity=".6" stroke="#000" stroke-width="2" stroke-linejoin="round"/><path d="M9 27l21-11v11z" fill="#fff"/></svg>
